X: 2
T: An Dro Or Kevin
R: barndance
M: 4/4
L: 1/8
K: Bmin
|B2 f2 d3f|e2 dc cd zB|BA Bf d2 fd|ee dc BE FA|
B2 f2 d3f|e2 dc cd zB|BA Bf d2 fd|ee dc B4||
cd dc d2 B2|cd dc d2 ze|d2 cd e2 fe|ed cA B3z|
cd dc d2 B2|cd dc d2 ze|d2 cd a2 f2|ed cA BE FA||

